tools/download-figma-icons/icons/outlined-medium/binoculars.svg

<svg width="24" height="24" viewBox="0 0 24 24" fill="none" xmlns="http://www.w3.org/2000/svg">
<path fill-rule="evenodd" clip-rule="evenodd" d="M18.375 19.4999C16.1078 19.4999 14.2613 17.6594 14.2508 15.3936L14.2995 14.7681C14.595 12.7814 16.3073 11.2506 18.375 11.2506C19.8863 11.2506 21.2063 12.0704 21.9248 13.2854L22.1835 13.7939C22.3868 14.2814 22.5 14.8154 22.5 15.3749C22.5 17.6489 20.649 19.4999 18.375 19.4999ZM5.625 19.4999C3.351 19.4999 1.5 17.6489 1.5 15.3749C1.5 14.8154 1.61325 14.2814 1.8165 13.7939L2.0745 13.2869C2.793 12.0704 4.113 11.2506 5.625 11.2506C7.692 11.2506 9.40425 12.7814 9.7005 14.7666L9.74925 15.3936C9.73875 17.6594 7.89225 19.4999 5.625 19.4999ZM6.14621 5.27341L6.14628 5.27324C6.16532 5.2304 6.59099 4.27253 7.76621 4.55641C8.90246 4.83241 8.99321 5.64316 9.00221 5.84416L9.42371 11.2389C8.42171 10.3187 7.09046 9.75091 5.62496 9.75091C4.94621 9.75091 4.29671 9.87766 3.69446 10.0997L6.14621 5.27341ZM11.2312 14.9999C11.2222 14.8716 11.2102 14.7449 11.193 14.6196L11.1645 14.2499H12.8355L12.8062 14.6211C12.7897 14.7464 12.7777 14.8724 12.7687 14.9999H11.2312ZM10.5765 6.75064H13.422L12.9532 12.7499H11.0467L10.5765 6.75064ZM16.2338 4.55617C17.3378 4.28692 17.781 5.11192 17.8755 5.32042L20.3048 10.0987C19.7025 9.87742 19.0538 9.75067 18.375 9.75067C16.9095 9.75067 15.5775 10.3184 14.5755 11.2394L15 5.80267C15.0068 5.64292 15.0975 4.83142 16.2338 4.55617ZM23.5455 13.1624L23.545 13.1617C23.5448 13.1612 23.5448 13.1607 23.5448 13.1602L23.538 13.1474C23.4533 12.9509 23.3542 12.7619 23.2477 12.5782L19.2345 4.68817C18.9158 3.93442 17.8013 2.63092 15.8798 3.09892C14.3618 3.46717 13.752 4.51792 13.5712 5.26492C13.5601 5.26391 13.5495 5.2609 13.539 5.25791C13.5262 5.25428 13.5136 5.25067 13.5 5.25067H10.5C10.4853 5.25067 10.472 5.25444 10.4585 5.25824C10.4472 5.26143 10.4358 5.26465 10.4235 5.26567C10.2345 4.49392 9.62025 3.46267 8.121 3.09892C6.1905 2.63167 5.08425 3.93442 4.78725 4.64092L0.7515 12.5782C0.645 12.7627 0.54675 12.9517 0.462 13.1467L0.45525 13.1602C0.45525 13.1609 0.45525 13.1617 0.4545 13.1624C0.1635 13.8419 0 14.5897 0 15.3749C0 18.4769 2.523 20.9999 5.625 20.9999C8.3415 20.9999 10.614 19.0642 11.1368 16.4999H12.8632C13.386 19.0642 15.6585 20.9999 18.375 20.9999C21.477 20.9999 24 18.4769 24 15.3749C24 14.5897 23.8365 13.8419 23.5455 13.1624ZM5.625 12.0006C5.21025 12.0006 4.875 12.3359 4.875 12.7499C4.875 13.1646 5.21025 13.4999 5.625 13.4999C6.65925 13.4999 7.5 14.3406 7.5 15.3749C7.5 15.7896 7.83525 16.1249 8.25 16.1249C8.66475 16.1249 9 15.7896 9 15.3749C9 13.5141 7.48575 12.0006 5.625 12.0006ZM17.625 12.7499C17.625 12.3359 17.9603 12.0006 18.375 12.0006C20.2358 12.0006 21.75 13.5141 21.75 15.3749C21.75 15.7896 21.4147 16.1249 21 16.1249C20.5853 16.1249 20.25 15.7896 20.25 15.3749C20.25 14.3406 19.4093 13.4999 18.375 13.4999C17.9603 13.4999 17.625 13.1646 17.625 12.7499Z" fill="black"/>
</svg>

<svg width="24" height="24" viewBox="0 0 24 24" fill="none" xmlns="http://www.w3.org/2000/svg"><path fill-rule="evenodd" clip-rule="evenodd" d="M18.375 19.5a4.13 4.13 0 0 1-4.124-4.106l.049-.626a4.128 4.128 0 0 1 4.075-3.517c1.511 0 2.831.82 3.55 2.034l.258.509c.204.487.317 1.021.317 1.58a4.13 4.13 0 0 1-4.125 4.126Zm-12.75 0A4.13 4.13 0 0 1 1.5 15.375a4.1 4.1 0 0 1 .317-1.581l.258-.507a4.122 4.122 0 0 1 3.55-2.036A4.13 4.13 0 0 1 9.7 14.767l.05.627A4.13 4.13 0 0 1 5.624 19.5Zm.521-14.227c.02-.043.445-1 1.62-.717 1.136.276 1.227 1.087 1.236 1.288l.422 5.395A5.6 5.6 0 0 0 5.625 9.75a5.57 5.57 0 0 0-1.93.349l2.451-4.827ZM11.231 15a5.758 5.758 0 0 0-.038-.38l-.028-.37h1.67l-.029.371a6.29 6.29 0 0 0-.037.379H11.23Zm-.655-8.25h2.846l-.469 6h-1.906l-.47-6Zm5.658-2.194c1.104-.27 1.547.556 1.641.764l2.43 4.779a5.583 5.583 0 0 0-1.93-.348 5.598 5.598 0 0 0-3.8 1.488L15 5.803c.007-.16.098-.972 1.234-1.247Zm7.311 8.606v-.002l-.007-.013a5.397 5.397 0 0 0-.29-.569l-4.014-7.89c-.318-.754-1.433-2.057-3.354-1.59-1.518.37-2.128 1.42-2.309 2.167a.176.176 0 0 1-.032-.007.128.128 0 0 0-.039-.007h-3a.135.135 0 0 0-.041.007c-.012.003-.023.007-.035.008-.19-.772-.804-1.803-2.303-2.167-1.93-.467-3.037.835-3.334 1.542L.752 12.578a5.623 5.623 0 0 0-.29.569l-.007.013v.002A5.608 5.608 0 0 0 0 15.375 5.63 5.63 0 0 0 5.625 21a5.635 5.635 0 0 0 5.512-4.5h1.726a5.635 5.635 0 0 0 5.512 4.5A5.63 5.63 0 0 0 24 15.375c0-.785-.163-1.533-.454-2.213Zm-17.92-1.161a.75.75 0 1 0 0 1.499c1.034 0 1.875.84 1.875 1.875a.75.75 0 1 0 1.5 0A3.378 3.378 0 0 0 5.625 12Zm12 .749a.75.75 0 0 1 .75-.75 3.378 3.378 0 0 1 3.375 3.375.75.75 0 1 1-1.5 0c0-1.034-.84-1.875-1.875-1.875a.75.75 0 0 1-.75-.75Z" fill="currentColor"/></svg>
